X:1
T:He Is Knocking
T:Bentley DeForest Ackley
T:He Is Knocking
T:Public Domain
T:Public Domain
T:Public Domain
C:Bentley DeForest Ackley
Z:Public Domain
%%score ( 1 2 ) ( 3 4 )
L:1/8
M:4/4
K:C
V:1 treble 
V:2 treble 
V:3 bass 
V:4 bass 
V:1
 [CE][DF] | [EG][EG] z2 [Ec][Ec][GB][FA] | [EG]2 [Ec]2 [CE]2 FD | (z GG^F [=FB])[FA][EG][^D^F] | %4
w: 1.~He is|knock- ing, soft- ly knock- ing|at the door; Let Him|* * * * in, O let|
w: 2.~He is|call- ing, gent- ly call- ing|to you now; Let Him|* * * * in, O let|
w: 3.~He is|wait- ing, kind- ly wait- ing|still for you; Let Him|* * * * in, O let|
 [CE]6 [CE][DF] | [EG]2 [EG]2 [Ec][Ec][GB][FA] | [EG]2 [Ec]2 [CE]2 | FD | %8
w: * in; He|will bring you rich- est bless-|ing ev- er-|more; Let|
w: * in; See|the plead- ing dew of mer-|cy on His|brow, Let|
w: * in; Give|Him wel- come, joy- ful wel-|come, warm and|true; Let|
 (z GG^F [=FB])G[^FA][=FB] | (EEFF E2) z2 ||"^Refrain" [FA][FA] z2 [Ac][Ac] z2 | %11
w: * * * * Him in, O|Him * * * *||
w: * * * * Him in, O|Him * * * *|Knock- ing, knock- ing!|
w: * * * * Him in, O|Him * * * *||
 [Ad][Ac][GB][FA] [EG]4 | [FG][FA][FB][FA] (FDEF) | GAcA (EEFG) | [FA][FA] z2 [Ac][Ac] z2 | %15
w: ||||
w: O- pen wide the door,|Let Him in to- day, * * *|Him in to stay; Knock- * * *|ing! Life He will|
w: ||||
 [Ad][Ac][GB][FA] [EG]4 | [FA][FB][Gc][Ad] [Ge]2 [Fd]2 | (E2 F2 [Ec]2) |] %18
w: |||
w: re- store, When you o-|pen wide the door. * *||
w: |||
V:2
 x2 | x8 | x8 | B4- x4 | x8 | x8 | x6 | x2 | (B4- G) x3 | c6 x2 || x8 | x8 | x4 G4 | E4 G4 | x8 | %15
w: |||Him|||||let *|in!||||||
w: |||Him|||||let *|in!|||ask|ing, knock-||
w: |||Him|||||let *|in!||||||
 x8 | x8 | c4- x2 |] %18
w: |||
w: |||
w: |||
V:3
 [C,G,][C,G,] | [C,C][C,C] z2 [C,G,][C,G,][C,C][C,C] | [C,C]2 [C,G,]2 [C,G,]2 z2 | %3
w: ~ ~|~ ~ ~ ~ ~ ~|~ ~ ~|
 z [G,D][G,D][G,D] [G,D] z3 | z [C,C][C,B,][C,A,] [C,G,]2 [C,G,][C,G,] | %5
w: O let Him in,|O let Him in; ~ ~|
 [C,C]2 [C,C]2 [C,G,][C,G,][C,C][C,C] | [C,C]2 [C,G,]2 [C,G,]2 | z2 | %8
w: ~ ~ ~ ~ ~ ~|~ ~ ~||
 z [G,D][G,D][G,D] [G,D][G,B,][G,C][G,D] | CG,A,A, G,2 z2 || [F,C][F,C] z2 [F,CF][F,CF] z2 | %11
w: O let Him in, ~ ~ ~|~ O let Him in;|~ ~ ~ ~|
 [F,C][F,C][F,C][F,C] [C,C]4 | [G,B,][G,C][G,D][G,C] G,F,E,D, | CCG,A, C,C,D,E, | %14
w: ~ ~ ~ ~ ~|~ ~ ~ ~ O let Him in,|~ ~ Ask Him in, He’s ~ ~|
 [F,C][F,C] z2 [F,CF][F,CF] z2 | [F,C][F,C][F,C][F,C] [C,C]4 | [F,C][D,D][E,C][F,C] [G,C]2 B,G, | %17
w: ~ ~ ~ ~|~ ~ ~ ~ ~|~ ~ ~ bolt- ed~door. * *|
 G,2 A,2 [C,G,]2 |] %18
w: |
V:4
 x2 | x8 | x8 | x8 | x8 | x8 | x6 | x2 | x8 | C,6 x2 || x8 | x8 | x4 B,4 | C,4 C4 | x8 | x8 | %16
w: |||||||||~|||~|~ ~|||
 x6 G,2 | C,4- x2 |] %18
w: ||

